svgs/sharp-light/high-definition.svg

<svg xmlns="http://www.w3.org/2000/svg" viewBox="0 0 576 512"><!--! Font Awesome Pro 6.6.0 by @fontawesome - https://fontawesome.com License - https://fontawesome.com/license (Commercial License) Copyright 2024 Fonticons, Inc. --><path d="M544 64l0 384L32 448 32 64l512 0zM32 32L0 32 0 64 0 448l0 32 32 0 512 0 32 0 0-32 0-384 0-32-32 0L32 32zM320 160l0 16 0 160 0 16 16 0 48 0c53 0 96-43 96-96s-43-96-96-96l-48 0-16 0zm64 32c35.3 0 64 28.7 64 64s-28.7 64-64 64l-32 0 0-128 32 0zM144 176l0-16-32 0 0 16 0 80 0 80 0 16 32 0 0-16 0-64 96 0 0 64 0 16 32 0 0-16 0-80 0-80 0-16-32 0 0 16 0 64-96 0 0-64z"/></svg>

<svg xmlns="http://www.w3.org/2000/svg" viewBox="0 0 576 512"><!--! Font Awesome Pro 6.4.2 by @fontawesome - https://fontawesome.com License - https://fontawesome.com/license (Commercial License) Copyright 2023 Fonticons, Inc. --><path d="M544 64V448H32V64H544zM32 32H0V64 448v32H32 544h32V448 64 32H544 32zM320 160v16V336v16h16 48c53 0 96-43 96-96s-43-96-96-96H336 320zm64 32c35.3 0 64 28.7 64 64s-28.7 64-64 64H352V192h32zM144 176V160H112v16 80 80 16h32V336 272h96v64 16h32V336 256 176 160H240v16 64H144V176z"/></svg>
